X:2004 
T:Three little boats went out to sea 
N:See also KV163 and KV399
C:Henry Clague, Ballanorris
O:Isle of Man
S:Traditional
Z:Clague collection 
B:Kiaull Vannin, #4 
M:6/8 
Q:160 
K:D 
F2B B2c|d2d c3|d2B B3|c2F F3|F2B B2c|d2e !fermata!f3|f2f edc|B3 B3|| 
